X:780
T: Pleasant Hour (The)
C: BB
L: 1/8
M: 4/4
R: reel
Q: 1/4=175
K: Dm
"Dm"A2 FA dAFA|"C"GE ~E2 CEGE|"Dm"A2 FA dAFA|"Bb"defd "Am7"cAEG|
"Dm"A2 FA dAFA|"C"GE ~E2 GABc|"Dm"defd "Gm7"BAGF|"C"EGEC "Dm"D4:|
"F"F2 AF CFAF|"Gm"G2 Bc dcBG|"Am"A2 cA eAcA|"Bb"d2 fd "Am"cAGE|
"F"F2 AF CFAF|"Gm"G2 Bc dcde|"Dm"fafd "C"egec|"Am7"AGEC "Dm"D4 :|
